assets/icons/qvision/notifications_active.svg

<svg width="24" height="24" viewBox="0 0 24 24" fill="none" xmlns="http://www.w3.org/2000/svg">
<g clip-path="url(#clip0_147_6534)">
<path d="M7.57979 4.08L6.14979 2.65C3.74978 4.48 2.16979 7.3 2.02979 10.5H4.02979C4.17979 7.85 5.53979 5.53 7.57979 4.08ZM19.9698 10.5H21.9698C21.8198 7.3 20.2398 4.48 17.8498 2.65L16.4298 4.08C18.4498 5.53 19.8198 7.85 19.9698 10.5ZM17.9998 11C17.9998 7.93 16.3598 5.36 13.4998 4.68V4C13.4998 3.17 12.8298 2.5 11.9998 2.5C11.1698 2.5 10.4998 3.17 10.4998 4V4.68C7.62979 5.36 5.99979 7.92 5.99979 11V16L3.99979 18V19H19.9998V18L17.9998 16V11ZM11.9998 22C12.1398 22 12.2698 21.99 12.3998 21.96C13.0498 21.82 13.5798 21.38 13.8398 20.78C13.9398 20.54 13.9898 20.28 13.9898 20H9.98979C9.99979 21.1 10.8898 22 11.9998 22Z" fill="#323232"/>
</g>
<defs>
<clipPath id="clip0_147_6534">
<rect width="24" height="24" fill="white"/>
</clipPath>
</defs>
</svg>

<svg xmlns="http://www.w3.org/2000/svg" height="24" viewBox="0 0 24 24" width="24"><path d="M0 0h24v24H0z" fill="none"/><path d="M7.58 4.08L6.15 2.65C3.75 4.48 2.17 7.3 2.03 10.5h2c.15-2.65 1.51-4.97 3.55-6.42zm12.39 6.42h2c-.15-3.2-1.73-6.02-4.12-7.85l-1.42 1.43c2.02 1.45 3.39 3.77 3.54 6.42zM18 11c0-3.07-1.64-5.64-4.5-6.32V4c0-.83-.67-1.5-1.5-1.5s-1.5.67-1.5 1.5v.68C7.63 5.36 6 7.92 6 11v5l-2 2v1h16v-1l-2-2v-5zm-6 11c.14 0 .27-.01.4-.04.65-.14 1.18-.58 1.44-1.18.1-.24.15-.5.15-.78h-4c.01 1.1.9 2 2.01 2z"/></svg>
